Airfryer_Icon_AH_filled.svg

<svg width="100%" height="100%" viewBox="0 0 29 29" xmlns="http://www.w3.org/2000/svg" fill="currentColor" fill-rule="evenodd" clip-rule="evenodd" stroke-linejoin="round" stroke-miterlimit="2">
  <path d="M3.544 6.076l.055-.931c.098-1.647 1.463-2.932 3.113-2.932h14.918c1.65 0 3.014 1.285 3.113 2.932l.055.931H3.544zm21.297.709c.22 3.699.738 12.373.738 12.371.04.365.556 5.985-5.567 7.906-1.499.469-3.404.378-5.835.379h-.012c-2.426 0-4.324.076-5.825-.378-6.059-1.832-5.607-7.581-5.577-7.898l.738-12.379h21.34zm-12.938 10.483c.126.286.305.544.523.761l-.033-.003s-.782.645-.782 1.953c-.001.777.032 1.872.938 2.92.405.615 1.327 1.054 2.118 1.054 1.249 0 2.764-1.272 2.628-2.514-.111-1.019-.957-1.421-1.01-1.46-.578-.42-1.022-.934-1.075-1.426.303-.133.574-.324.8-.559l-.021.19s.645.781 1.953.783c.777 0 1.872-.033 2.92-.94.615-.404 1.054-1.326 1.054-2.117 0-1.249-1.272-2.764-2.514-2.628-1.019.111-1.421.957-1.46 1.01-.409.564-.909 1-.39 1.07-.11.29-.273.554-.474.782l.069.008s.781-.645.783-1.953c0-.777-.033-1.872-.94-2.92-.404-.615-1.326-1.054-2.117-1.054-1.249 0-2.764 1.273-2.628 2.515.111 1.019.957 1.421 1.01 1.46.517.375.927.826 1.045 1.27-.292.112-.558.277-.786.484-.153-.161-.788-.741-1.915-.742-.777 0-1.872.033-2.92.94-.615.404-1.055 1.326-1.055 2.117 0 1.249 1.272 2.764 2.514 2.628 1.019-.111 1.421-.957 1.46-1.01.385-.531.85-.948 1.305-1.054zm2.298-2.395c.76 0 1.378.618 1.378 1.379s-.618 1.378-1.378 1.378-1.379-.618-1.379-1.378.619-1.379 1.379-1.379zm5.646 8.812s1.161-.005 2.099-1.053c.588-.658 1.102-1.743 1.126-3.549.002-.195-.155-.356-.35-.359-.196-.002-.356.156-.359.351-.021 1.565-.436 2.515-.946 3.085-.

<?xml version="1.0" encoding="UTF-8" standalone="no"?>
<!DOCTYPE svg PUBLIC "-//W3C//DTD SVG 1.1//EN" "http://www.w3.org/Graphics/SVG/1.1/DTD/svg11.dtd">
<svg width="100%" height="100%" viewBox="0 0 29 29" version="1.1" xmlns="http://www.w3.org/2000/svg" xmlns:xlink="http://www.w3.org/1999/xlink" xml:space="preserve" xmlns:serif="http://www.serif.com/" style="fill-rule:evenodd;clip-rule:evenodd;stroke-linejoin:round;stroke-miterlimit:2;">
    <g>
        <path d="M3.544,6.076L3.599,5.145C3.697,3.498 5.062,2.213 6.712,2.213L21.63,2.213C23.28,2.213 24.644,3.498 24.743,5.145L24.798,6.076L3.544,6.076ZM24.841,6.785C25.061,10.484 25.579,19.158 25.579,19.156C25.619,19.521 26.135,25.141 20.012,27.062C18.513,27.531 16.608,27.44 14.177,27.441L14.165,27.441C11.739,27.44 9.841,27.516 8.34,27.062C2.281,25.23 2.733,19.481 2.763,19.164L3.501,6.785L24.841,6.785ZM11.903,17.268C12.029,17.554 12.208,17.812 12.426,18.029L12.393,18.026C12.393,18.026 11.611,18.671 11.61,19.979C11.609,20.756 11.642,21.851 12.548,22.899C12.953,23.514 13.875,23.953 14.666,23.953C15.915,23.953 17.43,22.681 17.294,21.439C17.183,20.42 16.337,20.018 16.284,19.979C15.706,19.559 15.262,19.045 15.209,18.553C15.512,18.42 15.783,18.229 16.009,17.994L15.988,18.184C15.988,18.184 16.633,18.965 17.941,18.967C18.718,18.968 19.813,18.935 20.861,18.028C21.476,17.624 21.915,16.702 21.915,15.911C21.915,14.662 20.643,13.147 19.401,13.283C18.382,13.394 17.98,14.239 17.941,14.293C17.532,14.857 17.032,15.293 16.551,15.363C16.441,15.073 16.278,14.809 16.077,14.581L16.146,14.589C16.146,14.589 16.927,13.944 16.929,12.636C16.93,11.859 16.897,10.764 15.99,9.716C15.586,9.101 14.664,8.661 13.873,8.661C12.624,8.661 11.109,9.934 11.245,11.176C11.356,12.195 12.201,12.597 12.255,12.636C12.772,13.011 13.182,13.462 13.3,13.906C13.008,14.018 12.742,14.183 12.514,14.39C12.36,14.229 11.725,13.649 10.598,13.648C9.821,13.647 8.726,13.68 7.678,14.586C7.063,14.991 6.623,15.913 6.623,16.704C6.623,17.953 7.896,19.468 9.138,19.332C10.157,19.221 10.559,18.376 10.598,18.322C10.983,17.791 11.448,17.374 11.903,17.268ZM14.201,14.873C14.961,14.873 15.579,15.491 15.579,16.252C15.579,17.012 14.961,17.63 14.201,17.63C13.44,17.63 12.822,17.012 12.822,16.252C12.822,15.491 13.44,14.873 14.201,14.873ZM19.847,23.685C19.847,23.685 21.008,23.68 21.946,22.632C22.534,21.974 23.048,20.889 23.072,19.083C23.074,18.888 22.917,18.727 22.722,18.724C22.526,18.722 22.366,18.879 22.363,19.074C22.342,20.639 21.927,21.589 21.417,22.159C20.707,22.954 19.838,22.976 19.838,22.976C19.642,22.979 19.486,23.14 19.488,23.336C19.491,23.531 19.652,23.688 19.847,23.685Z"/>
    </g>
</svg>
